X:1
T:Tracy's Turn
C:David A. Kaynor August 2003
%D:2003
M:C
K:A
|:"A"EC .C/.C/.C EFAB|ceef ecAc |"Bm"BF .F/.F/.F Bcde|fecA "F#m"BAFA |
"A" EC .C/.C/.C EFAB |ceef ecAc |"Bm"BF .F/.F/.F Bcde | [1 fa"E"ec "A"A2AF:|[2f"E"aec "A"A2 ed|]
|: "A"cA A/A/B cAce | fefg aAce | "Bm"fB .B/.B/.A Bcde |fbba b2 ag|
"A"ae .e/.e/.e fecB | A2cA "F#m"BAFA|"A"EC .C/.C/.C "D"EFAB| [1c"E"ecB"A"A2 ed :| [2c"E"ecB "A"A4 ||
